X:1
T:Title
%%score { ( 1 3 ) | ( 2 4 ) }
L:1/8
Q:1/4=96
M:2/4
K:Eb
V:1 treble nm="Grand Piano"
V:3 treble 
V:2 bass 
V:4 bass 
V:1
 G2 G[FA] | [DF]3 [DG] | EE FG | [DF]4 | [DB]2 [DB][Ec] | [Fd]3 [FB] | [Gd][EGc] [DFB][CE=A] | %7
w: Arthur~Wilton * *|||||||
 B2 z2 | [B,EG]2 [B,EG][B,FA] | [B,DF]3 [A,DG] | [G,E][G,E] [A,EF][B,EG] | [B,DF]4 | %12
w: |||||
 [DB]2 [Ac][Ad] | [Ge][GB] [GB][CFA] | [EG]2 [A,DF]2 | [G,E]4 | [GB]2 [GB][Ac] | [EG]3 [DF] | %18
w: ||||||
 EE GA | B4 | [Ge]2 [Ge][Ac] | [Ad] [Ad]2 [Ac] | [FA][FA] [Ac][Ac] | [GB]4 | [GB]2 [GB][Ac] | %25
w: |||||||
 [EG]3 [DF] | EE GA | B4 | [Ge]2 [Ge][GB] | [Ac] [GB]2 [B,EG] | [A,DF][G,E] [B,EG][A,DF] | %31
w: ||||||
 [G,E]4 |] %32
w: |
V:2
 [E,B,E]2 [E,B,E][E,B,] | [B,,B,]3 [B,,A,] | [E,G,][E,G,] [E,A,E][E,B,E] | [B,,B,]4 | %4
 [B,,B,]2 [B,,B,][B,,B,] | [B,,B,]3 [D,B,] | [E,B,]E, F,F, | z2 A2 | E,2 E,E, | B,,3 B,, | %10
 E,E, E,E, | B,,4 | B,2 B,B, | [E,B,][E,E] [E,E]F, | B,2 B,,2 | E,4 | [E,E]2 [E,E][E,E] | %17
 [E,B,]3 [B,,A,] | [E,G,][E,G,] [E,B,E][F,B,D] | [G,B,E]4 | [E,B,]2 [E,B,][E,E] | %21
 [F,B,] [F,B,]2 [F,B,] | [B,,B,][B,,B,] [B,,B,][B,,B,] | [E,B,]4 | [E,E]2 [E,E][E,E] | %25
 [E,B,]3 [B,,A,] | [E,G,][E,G,] [E,B,E][F,B,D] | [G,B,E]4 | [E,B,]2 [E,B,][E,E] | [E,E] [E,E]2 E, | %30
 B,,B,, B,,B,, | E,4 |] %32
V:3
 x4 | x4 | x4 | x4 | x4 | x4 | x4 | [B,D]4 | x4 | x4 | x4 | x4 | x4 | x4 | x4 | x4 | x4 | x4 | x4 | %19
 x4 | x4 | x4 | x4 | x4 | x4 | x4 | x4 | x4 | x4 | x4 | x4 | x4 |] %32
V:4
 x4 | x4 | x4 | x4 | x4 | x4 | x4 | B,,4 | x4 | x4 | x4 | x4 | x4 | x4 | x4 | x4 | x4 | x4 | x4 | %19
 x4 | x4 | x4 | x4 | x4 | x4 | x4 | x4 | x4 | x4 | x4 | x4 | x4 |] %32

